X:1
T:Jerusalem
T:F Major            Jacob French, 1789
T:Transcribed from The New American Melody, 1789.
T:Nahum Tate and Nicholas Brady, 1698 New Version (Psalm 87)           88. 88. 88.
%%score [ 1 2 3 4 ]
L:1/8
Q:1/4=110
M:2/2
K:F
V:1 treble nm="Tr." snm="Tr."
V:2 treble nm="C." snm="C."
V:3 treble-8 nm="T." snm="T."
V:4 bass nm="B." snm="B."
V:1
"_1. God's temple crowns   the    ho  –   ly  mount,  The Lord there condescends   to        dwell.      His   Zi – on's  gates, in  his account,  Our Is–rael's fai–rest  tents  ex – cel." c4 c2 A2 | %1
 F6 C2 | (F2 A2 B2) B2 | c8 | A4 c4 | c4 c2 c2 | c4 =B4 | c8 | z4 c4 | B4 A4 | G4 d4 | d4 c4 | %12
 c4 c4 | A2 B2 c2 d2 | c4 c4 | c8 |: %16
"_1. Fame glorious  things of thee shall  sing,   O      ci  – ty     of th'Al–migh–ty  King!" A4 A2 A>B | %17
 c2 c2 c2 cB | A2 AG F2 G2 | A2 d2 c2 c2 | c8 :| %21
V:2
"_2. But still of  Zi      –     on     I'll      a    –    ver    That many such  from  her     pro  – ceed;      Th'Al–migh–ty  shall  es –ta–blish her, His general list shall show when read," F4 F2 E2 | %1
 D6 E2 | F4 G4 | A8 | F4 A4 | G4 F2 A2 | (G2 A2) G4 | G8 | z4 F4 | D4 F4 | E4 F4 | [DF]4 F4 | %12
 E4 F4 | F2 G2 A2 G2 | F4 [EG]4 | [FA]8 |: %16
"_2. That  such  a   per–son  there  was  born,  Their  age  and  country  did  a  – dorn." F4 A2 F2 | %17
 G2 G2 A2 G2 | F2 FG A2 G2 | F2 F2 E2 [EG]2 | [FA]8 :| %21
V:3
"_3. He'll Zion find         with   num – bers   filled   Of such as      me –rit  high   re   –   nown,      For hand and voice musicians skilled, And her transcending fame to crown" F4 c2 c2 | %1
 (f3 g f2) e2 | (d2 c2) (d2 e2) | f8 | c4 f4 | (e2 d2) c2 f2 | (g2 f2) (e2 d2) | c8 | z4 A4 | %9
 B4 (c2 d2) | c4 A4 | B4 A4 | G4 A4 | c2 de f3 B | A4 G4 | F8 |: %16
"_3. Of  such  she  shall  successions  bring   Like  wa  – ters   from  a  li – ving  spring." c4 f2 f2 | %17
 e2 e2 f2 ge | c2 de f2 ed | c2 B2 A2 G2 | F8 :| %21
V:4
 [F,,F,]4 [F,,F,]2 [A,,A,]2 | [B,,B,]6 [C,C]2 | ([B,,B,]2 [A,,A,]2) [G,,G,]4 | [F,,F,]8 | %4
 [F,,F,]4 [F,,F,]4 | ([C,C]2 [B,,B,]2) [A,,A,]2 [F,,F,]2 | [C,C]4 [G,,G,]4 | C,8 | z4 [F,,F,]4 | %9
 [G,,G,]4 [F,,F,]4 | C,4 D,4 | B,,4 F,,4 | C,4 [F,,F,]4 | [A,,A,]2 [G,,G,]2 [A,,A,]2 [B,,B,]2 | %14
 [C,C]4 C,4 | [F,,F,]8 |: F,4 D,2 D,2 | C,2 C,2 F,2 E,C, | F,2 F,E, D,2 C,B,, | A,,2 B,,2 C,2 C,2 | %20
 F,,8 :| %21

